icon/pk/bib.svg

<svg viewBox="0 0 48 48" fill="none" xmlns="http://www.w3.org/2000/svg" height="1em" width="1em">
  <path d="M31 14.0001C31 22.0002 17 22.0002 17 14.0001C17 9.00016 22 8.00008 20 5.0001C18 2.0001 8 7.00005 8 16.0001V32C8 40.5 16.5 44 23.5 44C30.5 44.0001 40 41.0001 40 32V16.0002C40 7.00016 29 2.00012 27 5.0001C25 8.00008 31 9.00016 31 14.0001Z" fill="#2F88FF" stroke="black" stroke-width="4" stroke-linejoin="round"/>
  <path d="M19 32L24 27L29 32L24 37L19 32Z" fill="#43CCF8" stroke="white" stroke-width="4" stroke-linecap="round" stroke-linejoin="round"/>
</svg>

<svg width="48" height="48" fill="none" xmlns="http://www.w3.org/2000/svg"><path d="M31 14c0 8-14 8-14 0 0-5 5-6 3-9S8 7 8 16v16c0 8.5 8.5 12 15.5 12S40 41 40 32V16C40 7 29 2 27 5s4 4 4 9Z" fill="#2F88FF" stroke="#000" stroke-width="4" stroke-linejoin="round"/><path d="m19 32 5-5 5 5-5 5-5-5Z" fill="#43CCF8" stroke="#fff" stroke-width="4" stroke-linecap="round" stroke-linejoin="round"/></svg>
